src/objects/writing/1F58B.svg

<svg id="emoji" viewBox="0 0 72 72" xmlns="http://www.w3.org/2000/svg">
  <g id="grid">
    <path fill="#b3b3b3" d="M68,4V68H4V4H68m4-4H0V72H72V0Z"/>
    <path fill="none" stroke="#00a5ff" stroke-miterlimit="10" stroke-width="0.1" d="M12.923,10.9583H59.0769A1.9231,1.9231,0,0,1,61,12.8814V59.0352a1.9231,1.9231,0,0,1-1.9231,1.9231H12.9231A1.9231,1.9231,0,0,1,11,59.0352V12.8813A1.923,1.923,0,0,1,12.923,10.9583Z"/>
    <rect x="16" y="4" rx="2.2537" width="40" height="64" fill="none" stroke="#00a5ff" stroke-miterlimit="10" stroke-width="0.1"/>
    <rect x="16" y="4" rx="2.2537" width="40" height="64" transform="translate(72) rotate(90)" fill="none" stroke="#00a5ff" stroke-miterlimit="10" stroke-width="0.1"/>
    <circle cx="36" cy="36" r="29" fill="none" stroke="#00a5ff" stroke-miterlimit="10" stroke-width="0.1"/>
  </g>
  <g id="color">
    <polyline fill="#d0cfce" stroke="#d0cfce" stroke-linecap="round" stroke-linejoin="round" stroke-miterlimit="10" stroke-width="2.0667" points="25.7596,52.8682 19.6961,58.9318 12.0054,59.5784 12.6521,51.8877 18.7156,45.8241"/>
    <path fill="#9b9b9a" stroke="none" d="M44.4013,39.7543c9.0876-8.4026,16.143-18.2755,16.143-18.2755L60.2555,21.19l-9.8616-9.8617 c0,0-9.873,7.0554-18.2756,16.143c-11.555,12.4969-14.1071,17.6484-14.1071,17.6484l7.7484,7.7485l0.9933,0.9932 C26.7529,53.8614,31.9044,51.3093,44.4013,39.7543"/>
    <path fill="#3F3F3F" stroke="none" d="M18.7638,45.6189l7.743,7.9965c0,0,12.1822-7.647,14.4901-10.8137l-0.7914-1.9604L29.2382,30.709 L18.0541,45.1626L18.7638,45.6189z"/>
  </g>
  <g id="hair"/>
  <g id="skin"/>
  <g id="skin-shadow"/>
  <g id="line">
    <path fill="none" stroke="#000000" stroke-linecap="round" stroke-linejoin="round" stroke-miterlimit="10" stroke-width="2.0823" d="M18.9494,43.5572"/>
    <path fill="none" stroke="#000000" stroke-linecap="round" stroke-linejoin="round" stroke-miterlimit="10" stroke-width="2.0823" d="M31.7378,51.0321"/>
    <path fill="none" stroke="#000000" stroke-linecap="round" stroke-linejoin="round" stroke-miterlimit="10" stroke-width="2.0823" d="M22.2766,41.5709"/>
    <path fill="none" stroke="#000000" stroke-linecap="round" stroke-linejoin="round" stroke-miterlimit="10" stroke-width="2.0823" d="M22.2278,41.6417"/>
    <path fill="none" stroke="#000000" stroke-linecap="round" stroke-linejoin="round" stroke-miterlimit="10" stroke-width="2.0823" d="M18.5718,56.6837"/>
    <path fill="none" stroke="#000000" stroke-linecap="round" stroke-linejoin="round" stroke-miterlimit="10" stroke-width="2.0823" d="M31.7191,51.133"/>
    <path fill="none" stroke="#000000" stroke-linecap="round" stroke-linejoin="round" stroke-miterlimit="10" stroke-width="2.0823" d="M21.9785,41.3923"/>
    <path fill="none" stroke="#000000" stroke-linecap="round" stroke-linejoin="round" stroke-miterlimit="10" stroke-width="1.9553" d="M16.371,51.2405"/>
    <path fill="none" stroke="#000000" stroke-linecap="round" stroke-linejoin="round" stroke-miterlimit="10" stroke-width="1.8779" d="M12.0755,59.1853"/>
    <polyline fill="none" stroke="#000000" stroke-linecap="round" stroke-linejoin="round" stroke-miterlimit="10" stroke-width="2.0823" points="22.8373,55.7905 19.7595,58.8684 12.0054,59.5784 12.7154,51.8244 15.7934,48.7465"/>
    <line x1="16.2375" x2="13.1596" y1="55.3463" y2="58.4243" fill="none" stroke="#000000" stroke-linecap="round" stroke-linejoin="round" stroke-miterlimit="10" stroke-width="2.0823"/>
    <path fill="none" stroke="#000000" stroke-linecap="round" stroke-linejoin="round" stroke-miterlimit="10" stroke-width="2.0823" d="M44.4013,39.7543c9.0876-8.4026,16.143-18.2755,16.143-18.2755L50.3939,11.3283c0,0-0.0949,0.0678-0.2737,0.1984 c-1.6467,1.2034-10.4225,7.7472-18.0019,15.9446c-11.555,12.4969-14.1071,17.6484-14.1071,17.6484l7.7484,7.7485l0.9933,0.9932 C26.7529,53.8614,31.9044,51.3093,44.4013,39.7543"/>
    <line x1="41.0348" x2="29.7118" y1="41.524" y2="30.201" fill="none" stroke="#000000" stroke-linecap="round" stroke-linejoin="round" stroke-miterlimit="10" stroke-width="2.0823"/>
  </g>
</svg>

<svg viewBox="0 0 72 72" xmlns="http://www.w3.org/2000/svg"><path fill="#b3b3b3" d="M68 4v64H4V4h64m4-4H0v72h72V0z"/><path fill="none" stroke="#00a5ff" stroke-miterlimit="10" stroke-width=".1" d="M12.923 10.958h46.154A1.923 1.923 0 0161 12.881v46.154a1.923 1.923 0 01-1.923 1.923H12.923A1.923 1.923 0 0111 59.035V12.881a1.923 1.923 0 011.923-1.923z"/><rect x="16" y="4" rx="2.254" width="40" height="64" fill="none" stroke="#00a5ff" stroke-miterlimit="10" stroke-width=".1"/><rect x="16" y="4" rx="2.254" width="40" height="64" transform="rotate(90 36 36)" fill="none" stroke="#00a5ff" stroke-miterlimit="10" stroke-width=".1"/><circle cx="36" cy="36" r="29" fill="none" stroke="#00a5ff" stroke-miterlimit="10" stroke-width=".1"/><path d="M22.837 55.79l-3.078 3.078-7.754.71.71-7.754 3.078-3.078m.445 6.6l-3.078 3.078m31.241-18.67C53.49 31.352 60.544 21.48 60.544 21.48l-10.15-10.15s-.095.067-.274.198c-1.646 1.203-10.422 7.747-18.002 15.944C20.563 39.968 18.011 45.12 18.011 45.12l7.749 7.748.993.993S31.904 51.31 44.4 39.754m-3.365 1.77L29.712 30.201" stroke-linecap="round" stroke-miterlimit="10" stroke-width="6" stroke="#fff" fill="none" stroke-linejoin="round"/><path fill="#d0cfce" stroke="#d0cfce" stroke-linecap="round" stroke-linejoin="round" stroke-miterlimit="10" stroke-width="2.067" d="M25.76 52.868l-6.064 6.064-7.69.646.646-7.69 6.064-6.064"/><path fill="#9b9b9a" d="M44.401 39.754C53.49 31.352 60.544 21.48 60.544 21.48l-.288-.289-9.862-9.862s-9.873 7.056-18.276 16.143C20.563 39.968 18.011 45.12 18.011 45.12l7.749 7.748.993.993S31.904 51.31 44.4 39.754"/><path fill="#3F3F3F" d="M18.764 45.619l7.743 7.996s12.182-7.647 14.49-10.813l-.792-1.96-10.967-10.133-11.184 14.454.71.456z"/><path d="M22.837 55.79l-3.078 3.078-7.754.71.71-7.754 3.078-3.078m.445 6.6l-3.078 3.078m31.241-18.67C53.49 31.352 60.544 21.48 60.544 21.48l-10.15-10.15s-.095.067-.274.198c-1.646 1.203-10.422 7.747-18.002 15.944C20.563 39.968 18.011 45.12 18.011 45.12l7.749 7.748.993.993S31.904 51.31 44.4 39.754m-3.365 1.77L29.712 30.201" fill="none" stroke="#000" stroke-linecap="round" stroke-linejoin="round" stroke-miterlimit="10" stroke-width="2.082"/></svg>
